X: 26369
T: Merry Blacksmith, The
R: reel
M: 4/4
K: Dmajor
d3 A BAFB|A2 dA BAFB|ABde fded|Beed egfe|
d3 A BAFB|A2 dA BAFB|ABde fedB|1 AFEF D3 z:|2 AFEF D3 e||
faag ~f3 e|d2 fd efdB|ABde fded|Beed egfg|
~a3 g ~f3 e|d2 fd efdB|ABde fedB|1 AFEF D3 e:|2 AFEF D3 z||

